X:7251
%8717
T:Knocknagow
R:jig
Z:added by Alf warnock@magma.ca
M:6/8
L:1/8
K:Am
|:"Am"EAB ~c3| "Em"EG^F GAB|"Am"EAB ~c3| "Dm"~d3 ecA|"Am"EAB cBc|"Em"EG^F GAB|"Am"eag edB|cAA A2 E:|
|:"Am"Aab ~a3| "Em"ede ~g3| "Am"Aab aec|"D"de^f "G"gdB|"Am"Aab ~a3| "Em"ede ~g3| "Dm"efe "Em"dcB|"Am"cAA A2B:|
|:"Am"ece dcB|cAF ECE|AG
